X:1
T:His Guiding Hand
T:His Guiding Hand
T:Benjamin Franklin Roe, Sr.
T:Birdie Bell, 1904
T:Public Domain Courtesy of the Cyber Hymnal™
T:Public Domain Courtesy of the Cyber Hymnal™
C:Benjamin Franklin Roe, Sr.
Z:Public Domain
Z:Courtesy of the Cyber Hymnal™
%%score ( 1 2 ) ( 3 4 )
L:1/8
Q:1/4=93
M:4/4
K:E
V:1 treble 
V:2 treble 
V:3 bass 
V:4 bass 
V:1
 [EG]>[FA] | [GB]>[^^F^A] [GB]>[=Ac] [GB]2 E>[D^F] | [EG]6 [DF]>[EG] | %3
w: 1.~I have|felt His guid- ing hand all the|way; I have|
w: 2.~When the|clouds are dark o’er- head, He is|near; When the|
w: 3.~To my|Fa- ther’s house I’ll come by and|by, For the|
 [DA]>[DA] [DA]>[DA] [DA]2 [Fd]>[Ec] | [DB]6 [EG]>[FA] | [GB]>[^^F^A] [GB]>[=Ac] [GB]2 [Ge]>[Bd] | %6
w: heard His sweet com- mand day by|day; He has|made my heart re- joice As I|
w: road is rough I tread, He doth|cheer; I can|trust my heav’n- ly guide, As I|
w: prom- ised rest at home oft I|sigh; I shall|see Him face to face, Then I’ll|
 [Ac]>[A^B] [Ac]>[Ad] !fermata![Ae]2 [Ad]>[Ac] | [GB]>[^^F^A] [GB]>[=Ac] [GB]2 [EG]>[D^F] | E6 || %9
w: list- en to His voice, “Make the|nar- row path thy choice and o-|bey.”|
w: jour- ney at His side, And what-|ev- er may be- tide, I’ll not|fear.|
w: praise His love and grace, Which have|led me to that place— home on|high!|
"^Refrain" [EG]>[EG] | [DF]6 [CE]>[DF] | [EG]6 [EG]>[FA] | [GB]3 [GB] [EG]2 E2 | F6 [EG]>[FB] | %14
w: |||||
w: Bless- èd|hand! guid- ing|hand! Lead- ing|to the heav’n- ly|land, Where the|
w: |||||
 [Ge]4- [Ge]>[GB] [B=d]>[Gd] | [Ac]6 [^^Fd]>[Fc] | [GB]4- [GB]>[EG] [DF]>[DF] | E6 |] %18
w: ||||
w: wea- * ry jour- ney|o’er, I shall|praise * Him ev- er-|more.|
w: ||||
V:2
 x2 | x6 E3/2 x/ | x8 | x8 | x8 | x8 | x8 | x8 | (E2 B,>C B,2) || x2 | x8 | x8 | x6 E2 | F6 x2 | %14
 x8 | x8 | x8 | (E>B,C>C B,2) |] %18
V:3
 [E,B,]>[E,B,] | [E,E]>[E,E] [E,E]>[E,E] [E,E]2 [E,G,]>[B,,B,] | %2
w: ~ ~|~ ~ ~ ~ ~ ~ ~|
 [E,B,]2 [E,B,]>[E,B,] [E,B,]2 [A,B,]>[G,B,] | [F,B,]>[F,B,] [F,B,]>[F,B,] [F,B,]2 [F,^A,]>[F,A,] | %4
w: ~ ~ ~ ~ ~ ~|~ ~ ~ ~ ~ ~ ~|
 [B,,B,]2 [B,,B,]>[B,,B,] [B,,B,]2 [E,B,]>[E,B,] | [E,E]>[E,E] [E,E]>[E,E] [E,E]2 [E,E]>[E,E] | %6
w: ~ ~ ~ ~ ~ ~|~ ~ ~ ~ ~ ~ ~|
 [A,E]>[A,E] [A,E]>[A,D] !fermata![A,C]2 [A,E]>[A,E] | %7
w: ~ ~ ~ ~ ~ ~ ~|
 [E,E]>[E,E] [E,E]>[A,,E] [B,,E]2 [B,,B,]>[B,,A,] | G,2 G,>A, G,2 || z2 | %10
w: ~ ~ ~ ~ ~ ~ ~|~ ~ ~ ~||
 z2 [B,,B,]>[B,,B,] [B,,B,]2 z2 | z2 [E,B,]>[E,B,] [E,B,]2 [E,B,]>[E,B,] | %12
w: Bless- èd hand!|guid- ing hand! ~ ~|
 [E,E]3 [E,E] [E,B,]2 [C,^A,]2 | [B,,B,]2 [B,,B,]>[B,,B,] [B,,B,]2 z2 | %14
w: ~ ~ ~ ~|~ heav’n- ly land,|
 z2 [E,B,]>[E,B,] [E,B,]>[E,E] [G,E]>[E,E] | [A,E]2 [A,E]>[A,E] [A,E]2 z2 | %16
w: Where the wea- ry ~ ~|~ jour- ney o’er|
 z2 [B,E]>[B,E] [B,E]>B, [B,,A,]>[B,,A,] | G,>G, A,>A, G,2 |] %18
w: I shall praise Him ev- er-|more, for ev- er- more.|
V:4
 x2 | x8 | x8 | x8 | x8 | x8 | x8 | x8 | E,4 x2 || x2 | x8 | x8 | x8 | x8 | x8 | x8 | %16
 x11/2 B,/ x2 | E,6 |] %18

